X:152
T:Sonata Op.1 No.7 - Sarabanda
C:Corelli, A.
M:3/4
L:1/8
Q:1/4=52
K:G
|:D2|G4 AB|c2 BA G2|A4 Bc|d4 A2|
G4 AB|c2 de f2|g4 fe|G4:|

